!!!!SEGMENT: Ric2012-Jam_non_dicam.krn
!!!id: Ric2012
!!!AGN: Motet
!!!SCT: Elzinga (1999)
!!!voices: 5
!!!COM: Jean Richafort
!!!OTL: Jam non dicam
**kern	**text	**kern	**text	**kern	**text	**kern	**text	**kern	**text
*part5	*part5	*part4	*part4	*part3	*part3	*part2	*part2	*part1	*part1
*staff5	*staff5	*staff4	*staff4	*staff3	*staff3	*staff2	*staff2	*staff1	*staff1
*I"Bassus	*	*I"Tenor II	*	*I"Tenor I	*	*I"Altus	*	*I"Superius	*
*I'B	*	*I'T. II	*	*I'T. I	*	*I'A	*	*I'S	*
*clefF4	*	*clefGv2	*	*clefGv2	*	*clefG2	*	*clefG2	*
*k[b-]	*	*k[b-]	*	*k[b-]	*	*k[b-]	*	*k[b-]	*
*F:	*	*F:	*	*F:	*	*F:	*	*F:	*
*M2/1	*	*M2/1	*	*M2/1	*	*M2/1	*	*M2/1	*
*met(C|)	*	*met(C|)	*	*met(C|)	*	*met(C|)	*	*met(C|)	*
!!section: Prima pars: Jam non dicam
!!!OMD: Prima pars: Jam non dicam
=1	=1	=1	=1	=1	=1	=1	=1	=1	=1
0r	.	0r	.	0r	.	0r	.	1.dd	Jam
.	.	.	.	.	.	.	.	2cc	non
=2	=2	=2	=2	=2	=2	=2	=2	=2	=2
1r	.	0r	.	0r	.	1.g	Jam	2b-y	di-
.	.	.	.	.	.	.	.	2g	-cam
[1G	Jam	.	.	.	.	.	.	1b-y	vos
.	.	.	.	.	.	2f	non	.	.
=3	=3	=3	=3	=3	=3	=3	=3	=3	=3
2G]	.	0r	.	0r	.	2e	di-	1b-y	ser-
2G	non	.	.	.	.	2d	-cam	.	.
2F	di-	.	.	.	.	[1f	vos	1a	-vos,
2D	-cam	.	.	.	.	.	.	.	.
=4	=4	=4	=4	=4	=4	=4	=4	=4	=4
1A	vos	0r	.	0r	.	2f]	.	2r	.
.	.	.	.	.	.	4e	.	2.cc	sed
.	.	.	.	.	.	4d	.	.	.
1A	ser-	.	.	.	.	2e	.	.	.
.	.	.	.	.	.	.	.	4dd	a-
.	.	.	.	.	.	[2a	ser-	4ee	-mi-
.	.	.	.	.	.	.	.	4dd	.
=5	=5	=5	=5	=5	=5	=5	=5	=5	=5
1D	-vos,	0r	.	1.d	Jam	4a]	.	4ff	.
.	.	.	.	.	.	4g	.	4ee	.
.	.	.	.	.	.	4f	.	4dd	.
.	.	.	.	.	.	4e	.	4cc	.
1r	.	.	.	.	.	2f	.	2dd	.
.	.	.	.	2c	non	[2g	.	[2ee	-cos
=6	=6	=6	=6	=6	=6	=6	=6	=6	=6
0r	.	0r	.	2B-y	di-	4g]	.	2ee]	.
.	.	.	.	.	.	4f	.	.	.
.	.	.	.	2G	-cam	2.b-y	.	1dd	me-
.	.	.	.	1A	vos	.	.	.	.
.	.	.	.	.	.	4a	-vos,	.	.
.	.	.	.	.	.	[2a	ser-	2cc#i	.
=7	=7	=7	=7	=7	=7	=7	=7	=7	=7
0r	.	1.d	Jam	1B-y	ser-	2a]	.	0dd	-os,
.	.	.	.	.	.	2g	.	.	.
.	.	.	.	1A	-vos	1a	-vos,	.	.
.	.	2c	non	.	.	.	.	.	.
=8	=8	=8	=8	=8	=8	=8	=8	=8	=8
1.d	jam	2B-y	di-	0r	.	0r	.	0r	.
.	.	2G	-cam	.	.	.	.	.	.
.	.	2B-y	vos	.	.	.	.	.	.
2c	non	2c	.	.	.	.	.	.	.
=9	=9	=9	=9	=9	=9	=9	=9	=9	=9
2B-y	di-	2.d	ser-	0r	.	1r	.	0r	.
2G	-cam	.	.	.	.	.	.	.	.
.	.	4e	.	.	.	.	.	.	.
2.A	vos	4f	.	.	.	2r	.	.	.
.	.	4d	.	.	.	.	.	.	.
.	.	[2e	.	.	.	2a	sed	.	.
4G	.	.	.	.	.	.	.	.	.
=10	=10	=10	=10	=10	=10	=10	=10	=10	=10
2F	.	2e]	.	0r	.	2a	a-	0r	.
2D	.	1d	.	.	.	2a	-mi-	.	.
1E	ser-	.	.	.	.	4g	-cos	.	.
.	.	.	.	.	.	4f	.	.	.
.	.	2c#i	.	.	.	4g	.	.	.
.	.	.	.	.	.	4a	.	.	.
=11	=11	=11	=11	=11	=11	=11	=11	=11	=11
1D	-vos,	1d	-vos,	2r	.	2b-y	.	2r	.
.	.	.	.	2A	sed	1a	me-	2f	sed
1r	.	1r	.	2B-y	a-	.	.	2b-y	a-
.	.	.	.	2G	-mi-	[2g	.	2b-y	-mi-
=12	=12	=12	=12	=12	=12	=12	=12	=12	=12
0r	.	0r	.	1A	-cos	2g]	.	4cc	-cos
.	.	.	.	.	.	.	.	4b-y	.
.	.	.	.	.	.	2f	.	4cc	.
.	.	.	.	.	.	.	.	4dd	.
.	.	.	.	2r	.	2g	.	2ee-i	.
.	.	.	.	[2G	me-	[2b-y	.	[2dd	me-
=13	=13	=13	=13	=13	=13	=13	=13	=13	=13
0r	.	0r	.	4G]	.	4b-]	.	4dd]	.
.	.	.	.	4A	.	4a	.	4cc	.
.	.	.	.	4B-y	.	2g	.	2b-y	.
.	.	.	.	4c	.	.	.	.	.
.	.	.	.	4d	.	1f	-os,	1a	-os,
.	.	.	.	4e	.	.	.	.	.
.	.	.	.	[2d	.	.	.	.	.
=14	=14	=14	=14	=14	=14	=14	=14	=14	=14
1G	sed	2r	.	4d]	.	2r	.	2r	.
.	.	.	.	4c	.	.	.	.	.
.	.	2d	sed	4B-y	.	2g	sed	2b-y	sed
.	.	.	.	4A	.	.	.	.	.
2G	a-	2d	a-	1B-y	.	2g	a-	2b-y	a-
2G	-mi-	2e	-mi-	.	.	2g	-mi-	2g	-mi-
=15	=15	=15	=15	=15	=15	=15	=15	=15	=15
2.F	-cos	2f	-cos	2.A	-os,	1.c	-cos	2a	-cos
.	.	2F	me-	.	.	.	.	2.cc	me-
8EL	.	.	.	4B-y	.	.	.	.	.
8DJ	.	.	.	.	.	.	.	.	.
2E	.	2G	.	2c	.	.	.	.	.
.	.	.	.	.	.	.	.	4b-y	.
2F	.	2A	.	2d	me-	2f	me-	[2a	.
=16	=16	=16	=16	=16	=16	=16	=16	=16	=16
1G	me-	4B-y	-os	2B-y	.	2e	.	2a]	.
.	.	4A	.	.	.	.	.	.	.
.	.	4B-y	.	2G	.	2.d	.	1g	.
.	.	4c	.	.	.	.	.	.	.
1D	-os,	[1d	.	1A	.	.	.	.	.
.	.	.	.	.	.	4c	.	.	.
.	.	.	.	.	.	2A	.	2f#i	.
=17	=17	=17	=17	=17	=17	=17	=17	=17	=17
2r	.	1d]	.	1G	-os,	1B-y	-os,	[0g	-os,
2.G	qui-	.	.	.	.	.	.	.	.
.	.	1G	qui-	1r	.	2r	.	.	.
4A	.	.	.	.	.	.	.	.	.
[2B-y	.	.	.	.	.	[2G	qui-	.	.
=18	=18	=18	=18	=18	=18	=18	=18	=18	=18
4B-]	.	0d	-a	0r	.	4G]	.	0g]	.
4A	.	.	.	.	.	4A	.	.	.
1G	.	.	.	.	.	1B-y	.	.	.
4F	-a	.	.	.	.	4A	.	.	.
4E	.	.	.	.	.	4G	.	.	.
=19	=19	=19	=19	=19	=19	=19	=19	=19	=19
2D	.	1.f	o-	0r	.	1d	.	0r	.
1d	o-	.	.	.	.	.	.	.	.
.	.	.	.	.	.	1A	-a	.	.
2c	-mni-	2e	-mni-	.	.	.	.	.	.
=20	=20	=20	=20	=20	=20	=20	=20	=20	=20
2.B-y	-a	2d	-a	2r	.	0r	.	0r	.
.	.	4c	.	2G	qui-	.	.	.	.
8AL	.	4B-y	.	.	.	.	.	.	.
8GJ	.	.	.	.	.	.	.	.	.
2F	.	2c	.	2A	-a	.	.	.	.
2D	co-	2d	.	[2B-y	o-	.	.	.	.
=21	=21	=21	=21	=21	=21	=21	=21	=21	=21
2E	-gno-	2G	co-	2B-]	.	0r	.	0r	.
1G	-vi-	2B-y	-gno-	4A	-mni-	.	.	.	.
.	.	.	.	4G	.	.	.	.	.
.	.	1A	-vi-	[1d	-a	.	.	.	.
2F#i	.	.	.	.	.	.	.	.	.
=22	=22	=22	=22	=22	=22	=22	=22	=22	=22
[0G	-stis	1G	-stis	2d]	.	2r	.	1r	.
.	.	.	.	4c	.	2.G	qui-	.	.
.	.	.	.	4d	.	.	.	.	.
.	.	1r	.	2e	.	.	.	1g	qui-
.	.	.	.	.	.	4A	-a	.	.
.	.	.	.	[2d	co-	[2B-y	o-	.	.
=23	=23	=23	=23	=23	=23	=23	=23	=23	=23
0G]	.	0r	.	4d]	.	2B-]	.	0dd	-a
.	.	.	.	4G	-gno-	.	.	.	.
.	.	.	.	1g	-vi-	4A	-mni-	.	.
.	.	.	.	.	.	4G	.	.	.
.	.	.	.	.	.	1d	-a	.	.
.	.	.	.	2g	-tis,	.	.	.	.
=24	=24	=24	=24	=24	=24	=24	=24	=24	=24
0r	.	0r	.	2.f	co-	2.d	co-	1.ff	o-
.	.	.	.	4e	.	4e	.	.	.
.	.	.	.	2d	.	4f	.	.	.
.	.	.	.	.	.	4d	.	.	.
.	.	.	.	2c	-gno-	[2g	.	2ee	-mni-
=25	=25	=25	=25	=25	=25	=25	=25	=25	=25
0r	.	0r	.	1.B-y	-vi-	2g]	.	2.dd	-a
.	.	.	.	.	.	2f	.	.	.
.	.	.	.	.	.	.	.	4cc	.
.	.	.	.	.	.	2d	-gno-	2b-y	.
.	.	.	.	4A	.	[2a	-vi-	2cc	co-
.	.	.	.	4G	.	.	.	.	.
=26	=26	=26	=26	=26	=26	=26	=26	=26	=26
0r	.	2r	.	2F	.	2a]	.	2a	-gno-
.	.	2d	quae	2G	.	2b-y	.	1dd	-vi-
.	.	2f	o-	1A	-stis	2.a	.	.	.
.	.	2e	-pe-	.	.	.	.	2cc#i	.
.	.	.	.	.	.	4g	.	.	.
=27	=27	=27	=27	=27	=27	=27	=27	=27	=27
2r	.	2d	-ra-	1r	.	4f	.	0dd	-stis
.	.	.	.	.	.	4e	.	.	.
2G	quae	1g	.	.	.	4d	.	.	.
.	.	.	.	.	.	4c	.	.	.
2.B-y	o-	.	.	2r	.	2d	-stis	.	.
.	.	2f	-tus	2d	quae	2b-y	quae	.	.
4A	-pe-	.	.	.	.	.	.	.	.
=28	=28	=28	=28	=28	=28	=28	=28	=28	=28
2G	-ra-	1g	sum	2.d	o-	2b-y	o-	2r	.
2G	-tus	.	.	.	.	2b-y	-pe-	2dd	quae
.	.	.	.	4e	-pe-	.	.	.	.
1d	sum	1r	.	1f	-ra-	2a	-ra-	2.dd	o-
.	.	.	.	.	.	[2b-y	.	.	.
.	.	.	.	.	.	.	.	4cc	-pe-
=29	=29	=29	=29	=29	=29	=29	=29	=29	=29
1r	.	1r	.	1g	-tus	4b-]	.	2b-y	-ra-
.	.	.	.	.	.	4a	.	.	.
.	.	.	.	.	.	1g	.	2b-y	-tus
2r	.	2r	.	1d	sum	.	.	1a	sum
2D	in	2d	in	.	.	2f#i	-tus	.	.
=30	=30	=30	=30	=30	=30	=30	=30	=30	=30
2.G	me-	2d	me-	0r	.	0g	sum	0r	.
.	.	2d	-di-	.	.	.	.	.	.
4G	-di-	.	.	.	.	.	.	.	.
2G	-o	2d	-o	.	.	.	.	.	.
2G	ve-	2e	ve-	.	.	.	.	.	.
=31	=31	=31	=31	=31	=31	=31	=31	=31	=31
2F	-stri,	2.f	-stri,	2r	.	0r	.	0r	.
2.B-y	ve-	.	.	2d	in	.	.	.	.
.	.	4e	.	.	.	.	.	.	.
.	.	4d	.	2d	me-	.	.	.	.
4A	.	4c	.	.	.	.	.	.	.
[2G	.	[2B-y	.	2d	-di-	.	.	.	.
=32	=32	=32	=32	=32	=32	=32	=32	=32	=32
2G]	.	2B-]	.	2d	-o	0r	.	0r	.
4F	.	4A	.	2e	ve-	.	.	.	.
4E	.	4G	.	.	.	.	.	.	.
4D	.	2A	.	1f	-stri,	.	.	.	.
4E	.	.	.	.	.	.	.	.	.
4F	.	[2d	ve-	.	.	.	.	.	.
4G	.	.	.	.	.	.	.	.	.
=33	=33	=33	=33	=33	=33	=33	=33	=33	=33
1A	.	2d]	.	2e	in	1r	.	1r	.
.	.	2c	.	2.f	me-	.	.	.	.
1D	-stri,	1d	-stri,	.	.	2r	.	2r	.
.	.	.	.	4e	-di-	.	.	.	.
.	.	.	.	[2d	-o	2d	in	2a	in
=34	=34	=34	=34	=34	=34	=34	=34	=34	=34
0r	.	0r	.	4d]	.	2.f	me-	2.dd	me-
.	.	.	.	4c	.	.	.	.	.
.	.	.	.	4B-y	.	.	.	.	.
.	.	.	.	4A	.	4f	-di-	4dd	-di-
.	.	.	.	1B-y	ve-	2f	-o	2dd	-o
.	.	.	.	.	.	2g	ve-	2dd	ve-
=35	=35	=35	=35	=35	=35	=35	=35	=35	=35
2r	.	0r	.	1A	-stri,	[0a	-stri,	2.cc	-stri,
2A	in	.	.	.	.	.	.	.	.
.	.	.	.	.	.	.	.	4b-y	.
2.d	me-	.	.	1r	.	.	.	4a	.
.	.	.	.	.	.	.	.	4g	.
.	.	.	.	.	.	.	.	[2f	.
4d	-di-	.	.	.	.	.	.	.	.
=36	=36	=36	=36	=36	=36	=36	=36	=36	=36
2d	-o	0r	.	0r	.	0a]	.	2f]	.
2d	ve-	.	.	.	.	.	.	1ff	al-
2c	-stri,	.	.	.	.	.	.	.	.
2A	al-	.	.	.	.	.	.	2ee	-le-
=37	=37	=37	=37	=37	=37	=37	=37	=37	=37
2B-y	-le-	0r	.	2r	.	2r	.	2dd	-lu-
2c	-lu-	.	.	2A	in	2.a	al-	1cc	-ia,
1d	-ia,	.	.	2.d	me-	.	.	.	.
.	.	.	.	.	.	4g	.	.	.
.	.	.	.	.	.	4f	.	2b-y	al-
.	.	.	.	4d	-di-	4e	.	.	.
=38	=38	=38	=38	=38	=38	=38	=38	=38	=38
2r	.	1r	.	2d	-o	1f	-le-	2a	-le-
2D	al-	.	.	2d	ve-	.	.	4g	-lu-
.	.	.	.	.	.	.	.	4f	.
2E	-le-	2r	.	2c	-stri,	2e	-lu-	2g	-ia,
2F	-lu-	2A	in	2c	al-	2c	-ia,	[2a	al-
=39	=39	=39	=39	=39	=39	=39	=39	=39	=39
1G	-ia,	2.d	me-	2.B-y	-le-	2r	.	2a]	.
.	.	.	.	.	.	2d	al-	1g	-le-
.	.	4d	-di-	8AL	.	.	.	.	.
.	.	.	.	8GJ	.	.	.	.	.
2r	.	2d	-o	2B-y	-lu-	1f	-le-	.	.
2D	al-	2d	ve-	2A	-ia,	.	.	2f#i	-lu-
=40	=40	=40	=40	=40	=40	=40	=40	=40	=40
2E	.	2c	-stri,	2.G	al-	1e	-lu-	0g	-ia.
2C	-le-	2c	al-	.	.	.	.	.	.
.	.	.	.	4A	.	.	.	.	.
2.G	-lu-	[1B-y	-le-	4B-y	.	2.d	.	.	.
.	.	.	.	4c	.	.	.	.	.
.	.	.	.	[2d	-le-	.	.	.	.
4F	.	.	.	.	.	4e	.	.	.
=41	=41	=41	=41	=41	=41	=41	=41	=41	=41
2D	.	2B-]	.	2d]	.	2f	.	1r	.
2E	.	4A	-lu-	2c#i	-lu-	1g	.	.	.
.	.	4G	.	.	.	.	.	.	.
1D	.	1A	.	1d	-ia.	.	.	2r	.
.	.	.	.	.	.	2f#i	.	2dd	Ac-
=42	=42	=42	=42	=42	=42	=42	=42	=42	=42
0G	-ia.	1G	-ia.	2r	.	0g	-ia.	2dd	-ce-
.	.	.	.	2d	Ac-	.	.	2dd	-pi-
.	.	1r	.	2d	-ce-	.	.	1dd	-te
.	.	.	.	2d	-pi-	.	.	.	.
=43	=43	=43	=43	=43	=43	=43	=43	=43	=43
0r	.	2r	.	2.f	-te	0r	.	2cc	spi-
.	.	2d	Ac-	.	.	.	.	2a	.
.	.	.	.	4e	sp-	.	.	.	.
.	.	2d	-ce-	2d	-ri-	.	.	2b-y	.
.	.	2e	-pi-	2c	-tum	.	.	2cc	-ri-
=44	=44	=44	=44	=44	=44	=44	=44	=44	=44
1r	.	1f	-te	1d	san-	0r	.	2a	-tum
.	.	.	.	.	.	.	.	2.dd	san-
2r	.	1g	spi-	1G	-ctum,	.	.	.	.
.	.	.	.	.	.	.	.	4cc	.
2G	Ac-	.	.	.	.	.	.	4b-y	.
.	.	.	.	.	.	.	.	4a	.
=45	=45	=45	=45	=45	=45	=45	=45	=45	=45
2G	-ce-	2d	-ri-	0r	.	2r	.	1g	-ctum:
2G	-pi-	2.g	.	.	.	2d	Ac-	.	.
1B-y	-te	.	.	.	.	2.d	-ce-	1r	.
.	.	4f	.	.	.	.	.	.	.
.	.	8gL	.	.	.	.	.	.	.
.	.	8f	.	.	.	.	.	.	.
.	.	8e	.	.	.	4e	-pi-	.	.
.	.	8dJ	.	.	.	.	.	.	.
=46	=46	=46	=46	=46	=46	=46	=46	=46	=46
2A	spi-	2c	.	0r	.	2f	-te	1r	.
2G	-ri-	2.d	.	.	.	2g	spi-	.	.
2.d	-tum	.	.	.	.	2a	-ri-	2r	.
.	.	4c	.	.	.	.	.	.	.
.	.	4B-y	.	.	.	[2b-y	-tum	[2dd	quo-
4c	.	4A	.	.	.	.	.	.	.
=47	=47	=47	=47	=47	=47	=47	=47	=47	=47
2d	.	2G	-tum	0r	.	2b-]	.	2dd]	.
2e	.	1g	san-	.	.	4a	san-	2cc	-rum
.	.	.	.	.	.	4g	.	.	.
1d	san-	.	.	.	.	1a	.	1dd	re-
.	.	2f#i	.	.	.	.	.	.	.
=48	=48	=48	=48	=48	=48	=48	=48	=48	=48
1G	-ctum:	1g	-ctum:	2r	.	1g	-ctum:	2b-y	-mi-
.	.	.	.	2g	ac-	.	.	2g	-se-
2r	.	1r	.	2g	-ce-	1r	.	2a	-ri-
[2B-y	quo-	.	.	2f	-pi-	.	.	[2dd	-tis
=49	=49	=49	=49	=49	=49	=49	=49	=49	=49
2B-]	.	1r	.	1g	-te	1r	.	2dd]	.
2G	-rum	.	.	.	.	.	.	4cc	pec-
.	.	.	.	.	.	.	.	4b-y	.
2A	re-	2r	.	2e	spi-	2r	.	2cc	-ca-
2D	-mi-	2d	quo-	2f	-ri-	[2b-y	quo-	2dd	-ta
=50	=50	=50	=50	=50	=50	=50	=50	=50	=50
2E	-se-	1B-y	-rum	1g	-tum	2b-]	.	1r	.
2E	-ri-	.	.	.	.	2g	-rum	.	.
2D	-tis	2.d	re-	2.f	san-	2a	re-	2r	.
[2B-y	pec-	.	.	.	.	2f	-mi-	[2dd	pec-
.	.	4d	-mi-	4e	.	.	.	.	.
=51	=51	=51	=51	=51	=51	=51	=51	=51	=51
4B-]	.	2d	-se-	2f	.	2b-y	-se-	2dd]	.
4A	.	.	.	.	.	.	.	.	.
2G	.	2d	-ri-	2g	.	2b-y	-ri-	4cc	-ca-
.	.	.	.	.	.	.	.	4b-y	.
2.F	-ca-	2.f	-tis	1c	-ctum:	1a	-tis	2cc	.
.	.	.	.	.	.	.	.	[2ff	.
4G	.	8eL	.	.	.	.	.	.	.
.	.	8dJ	.	.	.	.	.	.	.
=52	=52	=52	=52	=52	=52	=52	=52	=52	=52
2A	.	2c	.	1r	.	2f	pe-	4ff]	.
.	.	.	.	.	.	.	.	4ee	.
2B-y	.	2d	pec-	.	.	2g	-ca-	1dd	.
1A	-ta	1e	-ca-	1c	quo-	[1a	-ta	.	.
.	.	.	.	.	.	.	.	2cc	.
=53	=53	=53	=53	=53	=53	=53	=53	=53	=53
2r	.	1d	-ta	1f	-rum	1a]	.	1dd	-ta
2d	re-	.	.	.	.	.	.	.	.
2c	-mit-	1r	.	2e	re-	1r	.	1r	.
2B-y	-tun-	.	.	[2d	-mi-	.	.	.	.
=54	=54	=54	=54	=54	=54	=54	=54	=54	=54
2G	-tur	0r	.	2d]	.	2r	.	0r	.
2B-y	.	.	.	1g	-se-	1d	re-	.	.
1A	e-	.	.	.	.	.	.	.	.
.	.	.	.	2f#i	-ri-	2f	-mit-	.	.
=55	=55	=55	=55	=55	=55	=55	=55	=55	=55
2.G	-is	0r	.	1g	-tis	2e	-tun-	2r	.
.	.	.	.	.	.	2d	-tur	1dd	re-
8FL	.	.	.	.	.	.	.	.	.
8EJ	.	.	.	.	.	.	.	.	.
1D	.	.	.	1r	.	2.f	e-	.	.
.	.	.	.	.	.	.	.	2ff	-mit-
.	.	.	.	.	.	4g	.	.	.
=56	=56	=56	=56	=56	=56	=56	=56	=56	=56
0r	.	2r	.	0r	.	2a	.	2ee	-tun-
.	.	1G	re-	.	.	1b-y	.	1dd	-tur
.	.	2B-y	-mit-	.	.	4a	.	4cc	e-
.	.	.	.	.	.	4g	.	4b-y	.
=57	=57	=57	=57	=57	=57	=57	=57	=57	=57
0r	.	2A	-tun-	2r	.	2f	.	4cc	.
.	.	.	.	.	.	.	.	4b-y	.
.	.	2G	-tur	1d	re-	1g	.	4a	.
.	.	.	.	.	.	.	.	4g	.
.	.	1d	e-	.	.	.	.	1a	.
.	.	.	.	2f	-mit-	2f#i	.	.	.
=58	=58	=58	=58	=58	=58	=58	=58	=58	=58
2r	.	1G	-is,	2e	-tun-	1g	-is,	0g	-is,
1d	al-	.	.	2d	-tur	.	.	.	.
.	.	2r	.	1e	e-	1r	.	.	.
2c	-lel-	[2g	al-	.	.	.	.	.	.
=59	=59	=59	=59	=59	=59	=59	=59	=59	=59
1B-y	-lu-	4g]	.	1d	-is,	2r	.	2r	.
.	.	4f	-le-	.	.	.	.	.	.
.	.	8gL	-lu-	.	.	2g	al-	1dd	al-
.	.	8f	.	.	.	.	.	.	.
.	.	8e	.	.	.	.	.	.	.
.	.	8dJ	.	.	.	.	.	.	.
1A	-ia,	1e	.	2r	.	1a	-le-	.	.
.	.	.	.	2A	al-	.	.	2cc	-le-
=60	=60	=60	=60	=60	=60	=60	=60	=60	=60
2r	.	1d	-ia,	2B-y	-le-	2f	-lu-	1b-y	-lu-
1G	al-	.	.	2G	-lu-	2g	.	.	.
.	.	2r	.	[1d	-ia,	1a	-ia,	2a	-ia,
2F	.	2A	al-	.	.	.	.	[2ff	a-
=61	=61	=61	=61	=61	=61	=61	=61	=61	=61
2D	-le-	2B-y	-le-	2d]	.	2r	.	2ff]	.
2E	-lu-	2c	.	4c	.	2g	al-	2ee	-le-
.	.	.	.	4B-y	.	.	.	.	.
2F	.	1d	-lu-	2A	.	2f	-le-	2.dd	-lu-
[2G	-ia,	.	.	2G	al-	2d	-lu-	.	.
.	.	.	.	.	.	.	.	4cc	.
=62	=62	=62	=62	=62	=62	=62	=62	=62	=62
4G]	.	1G	-ia,	2.g	-le-	2e	-ia,	4b-y	.
4F	.	.	.	.	.	.	.	4a	.
4E	.	.	.	.	.	1g	al-	2.cc	.
4D	.	.	.	4f	.	.	.	.	.
2C	.	1r	.	4e	.	.	.	.	.
.	.	.	.	4d	.	.	.	4b-y	.
[2F	al-	.	.	[2c	.	[2f	-le-	4a	.
.	.	.	.	.	.	.	.	4g	.
=63	=63	=63	=63	=63	=63	=63	=63	=63	=63
2F]	.	1r	.	4c]	.	4f]	.	2f	.
.	.	.	.	4B-y	.	4e	.	.	.
2E	-le-	.	.	4A	.	2c	.	1g	.
.	.	.	.	4G	.	.	.	.	.
1D	-lu-	1F	al-	1A	-lu-	1d	-lu-	.	.
.	.	.	.	.	.	.	.	2f#i	.
=64	=64	=64	=64	=64	=64	=64	=64	=64	=64
[0Gl	-ia.	1.B-y	-le-	[0Gl	-ia.	[0dl	-ia.	[0gl	-ia.
.	.	2G	-lu-	.	.	.	.	.	.
=	=	=	=	=	=	=	=	=	=
00G]	.	00G	-ia.	00G]	.	00d]	.	00g]	.
=||	=||	=||	=||	=||	=||	=||	=||	=||	=||
*M2/1	*	*M2/1	*	*M2/1	*	*M2/1	*	*M2/1	*
*met(C|)	*	*met(C|)	*	*met(C|)	*	*met(C|)	*	*met(C|)	*
!!section: Secunda pars: Cum venerit
!!!OMD: Secunda pars: Cum venerit
0r	.	0r	.	0r	.	0r	.	1.dd	Cum
.	.	.	.	.	.	.	.	2ee	ve-
=65	=65	=65	=65	=65	=65	=65	=65	=65	=65
0r	.	0r	.	0r	.	0r	.	2cc	-ne-
.	.	.	.	.	.	.	.	2dd	-rit
.	.	.	.	.	.	.	.	1ff	il-
=66	=66	=66	=66	=66	=66	=66	=66	=66	=66
0r	.	0r	.	0r	.	1.g	Cum	2ee	-le
.	.	.	.	.	.	.	.	1dd	spi-
.	.	.	.	.	.	2a	ve-	4cc	.
.	.	.	.	.	.	.	.	4b-y	.
=67	=67	=67	=67	=67	=67	=67	=67	=67	=67
0r	.	0r	.	0r	.	2f	-ne-	2a	.
.	.	.	.	.	.	2g	-rit	2b-y	.
.	.	.	.	.	.	2.b-y	il-	1g	-ri-
.	.	.	.	.	.	4a	.	.	.
=68	=68	=68	=68	=68	=68	=68	=68	=68	=68
0r	.	1.d	Cum	0r	.	2b-y	-le	1f	-tus,
.	.	.	.	.	.	1a	spi-	.	.
.	.	.	.	.	.	.	.	2r	.
.	.	2e	ve-	.	.	4g	.	[2cc	cum
.	.	.	.	.	.	4f	.	.	.
=69	=69	=69	=69	=69	=69	=69	=69	=69	=69
0r	.	2c	-ne-	0r	.	2e	.	4cc]	.
.	.	.	.	.	.	.	.	4b-y	.
.	.	2d	-rit	.	.	2.f	.	4a	.
.	.	.	.	.	.	.	.	4g	.
.	.	1f	il-	.	.	.	.	1a	.
.	.	.	.	.	.	4e	.	.	.
.	.	.	.	.	.	4d	.	.	.
.	.	.	.	.	.	4c	.	.	.
=70	=70	=70	=70	=70	=70	=70	=70	=70	=70
0r	.	2e	.	1.G	Cum	4B-y	.	2.g	ve-
.	.	.	.	.	.	4G	.	.	.
.	.	1d	.	.	.	1g	.	.	.
.	.	.	.	.	.	.	.	4a	.
.	.	.	.	.	.	.	.	2b-y	.
.	.	2c	.	2A	ve-	4f	-ri-	2cc	-ne-
.	.	.	.	.	.	4e	.	.	.
=71	=71	=71	=71	=71	=71	=71	=71	=71	=71
0r	.	1d	-le	2F	-ne-	2f	-tus,	2a	-rit
.	.	.	.	2G	-rit	2.b-y	spi-	2.dd	spi-
.	.	2r	.	1B-y	il-	.	.	.	.
.	.	.	.	.	.	4a	.	4ee	-ri-
.	.	2d	spi-	.	.	4f	-ri-	[2ff	-tus
.	.	.	.	.	.	4g	.	.	.
=72	=72	=72	=72	=72	=72	=72	=72	=72	=72
1r	.	1f	-ri-	1A	-le	1a	-tus,	4ff]	.
.	.	.	.	.	.	.	.	4ee	.
.	.	.	.	.	.	.	.	4dd	.
.	.	.	.	.	.	.	.	4cc	.
[1G	Cum	1g	-tus	1r	.	1d	.	4b-y	.
.	.	.	.	.	.	.	.	4a	.
.	.	.	.	.	.	.	.	[2dd	.
=73	=73	=73	=73	=73	=73	=73	=73	=73	=73
2G]	.	2.e	ve-	0r	.	2r	.	2dd]	.
2A	ve-	.	.	.	.	1a	cum	2cc	ve-
.	.	8dL	.	.	.	.	.	.	.
.	.	8eJ	.	.	.	.	.	.	.
2F	-ne-	2f	.	.	.	.	.	2dd	-ri-
2G	-rit	[2e	-ri-	.	.	2g	ve-	[2b-y	-ta-
=74	=74	=74	=74	=74	=74	=74	=74	=74	=74
1B-y	il-	2e]	.	0r	.	2f	-ne-	2b-]	.
.	.	1d	-ta-	.	.	4e	-rit	4a	.
.	.	.	.	.	.	4d	.	4g	.
1A	-le	.	.	.	.	1e	.	[1a	-tis,
.	.	2c#i	.	.	.	.	.	.	.
=75	=75	=75	=75	=75	=75	=75	=75	=75	=75
1r	.	1d	-tis.	1.d	spi-	1f	il-	1a]	.
[1G	spi-	1r	.	.	.	[1d	-le	1r	.
.	.	.	.	2c	-ri-	.	.	.	.
=76	=76	=76	=76	=76	=76	=76	=76	=76	=76
2G]	.	0r	.	2B-y	-tus	1d]	.	0r	.
2F	-ri-	.	.	2A	ve-	.	.	.	.
2G	-tus	.	.	2B-y	-ri-	1r	.	.	.
2A	ve-	.	.	2c	-ta-	.	.	.	.
=77	=77	=77	=77	=77	=77	=77	=77	=77	=77
1F	-ri-	0r	.	2A	.	1r	.	0r	.
.	.	.	.	1d	.	.	.	.	.
1E	-ta	.	.	.	.	2r	.	.	.
.	.	.	.	2c#i	.	[2g	ve-	.	.
=78	=78	=78	=78	=78	=78	=78	=78	=78	=78
0D	tis,	2r	.	1d	-tis	2g]	.	1r	.
.	.	1d	spi-	.	.	4f#i	-ri-	.	.
.	.	.	.	.	.	4e	.	.	.
.	.	.	.	1r	.	1f#i	-ta-	2r	.
.	.	2d	-ri-	.	.	.	.	[2dd	spi-
=79	=79	=79	=79	=79	=79	=79	=79	=79	=79
0r	.	2G	-tus	0r	.	1g	-tis	2dd]	.
.	.	2.g	ve-	.	.	.	.	2dd	-ri-
.	.	.	.	.	.	1r	.	2g	-tus
.	.	4f	.	.	.	.	.	.	.
.	.	4e	.	.	.	.	.	[2cc	ve-
.	.	4d	.	.	.	.	.	.	.
=80	=80	=80	=80	=80	=80	=80	=80	=80	=80
1r	.	2c	.	0r	.	2r	.	2cc]	.
.	.	2G	-ri-	.	.	1g	spi-	2b-y	-ri-
2r	.	1d	-ta-	.	.	.	.	1a	-ta-
[2d	spi-	.	.	.	.	2f	-ri-	.	.
=81	=81	=81	=81	=81	=81	=81	=81	=81	=81
2d]	.	1G	-tis	1r	.	2d	-tus	0g	-tis
2d	-ri-	.	.	.	.	2.b-y	ve-	.	.
2.G	-tus	1r	.	2r	.	.	.	.	.
.	.	.	.	.	.	4a	.	.	.
.	.	.	.	[2d	spi-	4b-y	.	.	.
4E	.	.	.	.	.	4g	.	.	.
=82	=82	=82	=82	=82	=82	=82	=82	=82	=82
2F	.	0r	.	2d]	.	2a	-ri-	0r	.
2.G	ve-	.	.	2d	-ri-	2.b-y	-ta-	.	.
.	.	.	.	2G	-tus	.	.	.	.
4F	.	.	.	.	.	4a	.	.	.
4E	.	.	.	2c	ve-	4g	.	.	.
4D	.	.	.	.	.	4f	.	.	.
=83	=83	=83	=83	=83	=83	=83	=83	=83	=83
2C	.	1r	.	4c	.	4e	.	0r	.
.	.	.	.	4B-y	.	4d	.	.	.
2E	-ri-	.	.	4A	-ri-	1g	.	.	.
.	.	.	.	4G	.	.	.	.	.
1D	-ta-	2r	.	1A	-ta-	.	.	.	.
.	.	[2d	spi-	.	.	2f#i	.	.	.
=84	=84	=84	=84	=84	=84	=84	=84	=84	=84
[0G	-tis	2d]	.	1G	-tis	0g	-tis	0r	.
.	.	2d	-ri-	.	.	.	.	.	.
.	.	2G	-tus	1d	.	.	.	.	.
.	.	[2d	ve-	.	.	.	.	.	.
=85	=85	=85	=85	=85	=85	=85	=85	=85	=85
1G]	.	4d]	.	2r	.	2r	.	0r	.
.	.	4c	.	.	.	.	.	.	.
.	.	4B-y	-ri-	2g	il-	2.d	il-	.	.
.	.	4A	.	.	.	.	.	.	.
2r	.	1B-y	-ta-	2f	-le	.	.	.	.
.	.	.	.	.	.	4e	.	.	.
2d	il-	.	.	2d	do-	4f	.	.	.
.	.	.	.	.	.	4g	.	.	.
=86	=86	=86	=86	=86	=86	=86	=86	=86	=86
2c	-le	1A	-tis	2e	-ce-	1a	-le	1r	.
2A	do-	.	.	1f	.	.	.	.	.
1B-y	-ce-	1r	.	.	.	1r	.	2r	.
.	.	.	.	4e	.	.	.	2dd	il-
.	.	.	.	4d	.	.	.	.	.
=87	=87	=87	=87	=87	=87	=87	=87	=87	=87
2A	.	1r	.	4e	.	2r	.	2cc	-le
.	.	.	.	4c	.	.	.	.	.
1d	.	.	.	2f	.	2a	il-	2a	do-
.	.	2r	.	1e	-bit	2g	-le	2b-y	-ce-
2c#i	-bit	2c	il-	.	.	2e	do-	2cc	-bit
=88	=88	=88	=88	=88	=88	=88	=88	=88	=88
1d	vos	1.f	-le	1d	vos,	2f	-ce-	2a	vos,
.	.	.	.	.	.	2d	-bit	2.dd	do-
2r	.	.	.	2r	.	1a	vos,	.	.
.	.	.	.	.	.	.	.	4cc	.
2D	il-	2f	do-	2d	il-	.	.	2ff	.
=89	=89	=89	=89	=89	=89	=89	=89	=89	=89
2E	-le	2g	-ce-	2c	-le	2r	.	2ee	.
2F	do-	2f	-bit	2A	do-	2a	il-	1dd	-ce-
2G	-ce-	1e	vos	2B-y	-ce-	2g	-le	.	.
2A	-bit	.	.	2c	.	2e	do-	2cc	-bit
=90	=90	=90	=90	=90	=90	=90	=90	=90	=90
1D	vos	2r	.	2A	.	1f	-ce-	1dd	vos
.	.	2d	o-	1d	.	.	.	.	.
1r	.	[1g	-mnem	.	.	1e	-bit	1r	.
.	.	.	.	2c#i	-bit	.	.	.	.
=91	=91	=91	=91	=91	=91	=91	=91	=91	=91
2r	.	2g]	.	1d	vos	1d	vos	0r	.
2D	o-	2f	ve-	.	.	.	.	.	.
[1G	-mnem	2e	-ri-	1r	.	1r	.	.	.
.	.	[2d	-ta-	.	.	.	.	.	.
=92	=92	=92	=92	=92	=92	=92	=92	=92	=92
2G]	.	4d]	.	2r	.	1r	.	0r	.
.	.	4c	.	.	.	.	.	.	.
2G	ve-	2B-y	.	2d	o-	.	.	.	.
2F	-ri-	2A	-tem,	1f	-mnem	2r	.	.	.
[2B-y	-ta-	2B-y	ve-	.	.	2d	o-	.	.
=93	=93	=93	=93	=93	=93	=93	=93	=93	=93
2B-]	.	2G	-ri-	0r	.	1g	-mnem	0r	.
4A	.	1d	-ta-	.	.	.	.	.	.
4G	.	.	.	.	.	.	.	.	.
1A	.	.	.	.	.	2f	ve-	.	.
.	.	2c	.	.	.	2e	-ri-	.	.
=94	=94	=94	=94	=94	=94	=94	=94	=94	=94
1G	-tem,	2B-y	.	2r	.	1g	-ta-	1r	.
.	.	4A	.	2d	o-	.	.	.	.
.	.	4G	.	.	.	.	.	.	.
1r	.	1F	-tem,	2.f	-mnem	2.a	.	2r	.
.	.	.	.	.	.	.	.	2a	o-
.	.	.	.	8eL	.	4g	.	.	.
.	.	.	.	8dJ	.	.	.	.	.
=95	=95	=95	=95	=95	=95	=95	=95	=95	=95
0r	.	2r	.	4c	.	2e	.	1.cc	-mnem
.	.	.	.	4B-y	.	.	.	.	.
.	.	2c	o-	4A	.	2.f	.	.	.
.	.	.	.	4G	.	.	.	.	.
.	.	1f	-mnem	2F	.	.	.	.	.
.	.	.	.	.	.	4e	.	.	.
.	.	.	.	2G	ve-	2d	.	2b-y	ve-
=96	=96	=96	=96	=96	=96	=96	=96	=96	=96
2r	.	2e	ve-	2A	-ri-	2c	.	2a	-ri-
1d	o-	2d	-ri-	2B-y	-ta-	2d	-tem,	2g	-ta-
.	.	1e	-ta-	1A	-tem,	2r	.	1a	-tem,
2c	-mnem	.	.	.	.	[2a	o-	.	.
=97	=97	=97	=97	=97	=97	=97	=97	=97	=97
2.B-y	ve-	1d	-tem,	2r	.	2a]	.	2r	.
.	.	.	.	2G	o-	2g	-mnem	1dd	o-
4A	.	.	.	.	.	.	.	.	.
2B-y	-ri-	1r	.	2B-y	-mnem	2.f	ve-	.	.
[2A	-ta-	.	.	2c	ve-	.	.	2cc	-mnem
.	.	.	.	.	.	4e	.	.	.
=98	=98	=98	=98	=98	=98	=98	=98	=98	=98
2A]	.	2r	.	1.d	-ri-	2f	.	2.b-y	ve-
1G	.	2B-y	o-	.	.	2g	.	.	.
.	.	.	.	.	.	.	.	4a	.
.	.	2G	-mnem	.	.	2d	.	2b-y	.
2F#i	.	2A	ve-	2c	.	2f	.	[2a	-ri-
=99	=99	=99	=99	=99	=99	=99	=99	=99	=99
1G	.	2.B-y	-ri-	2B-y	.	2e	-ri-	2a]	.
.	.	.	.	4A	.	2.d	-ta-	1g	-ta-
.	.	4c	.	4G	.	.	.	.	.
1D	-tem.	1d	-ta-	1A	-ta-	.	.	.	.
.	.	.	.	.	.	4c	.	.	.
.	.	.	.	.	.	2A	.	2f#i	.
=	=	=	=	=	=	=	=	=	=
*M3/1	*	*M3/1	*	*M3/1	*	*M3/1	*	*M3/1	*
*met(3)	*	*met(3)	*	*met(3)	*	*met(3)	*	*met(3)	*
1r	.	1d	-tem.	0G	-tem.	0.B-y	-tem.	0.g	-tem.
1r	.	1r	.	.	.	.	.	.	.
1G	Et	1G	Et	1g	Et	.	.	.	.
=100	=100	=100	=100	=100	=100	=100	=100	=100	=100
0G	quae	1.B-y	quae	0g	quae	1r	.	1r	.
.	.	.	.	.	.	1d	Et	1r	.
.	.	2c	.	.	.	.	.	.	.
1B-y	ven-	1d	.	1f	ven-	2d	quae	1dd	Et
.	.	.	.	.	.	2e	.	.	.
=101	=101	=101	=101	=101	=101	=101	=101	=101	=101
1B-y	-tu-	1B-y	ven-	1d	-tu-	2f	.	0dd	quae
.	.	.	.	.	.	2g	.	.	.
0A	-ra	1.c	-tu-	0e	-ra	0a	.	.	.
.	.	.	.	.	.	.	.	1cc	ven-
.	.	2B-y	.	.	.	.	.	.	.
=102	=102	=102	=102	=102	=102	=102	=102	=102	=102
0D	sunt	1A	.	2d	sunt	1.f	ve-	0ff	-tu-
.	.	.	.	2e	.	.	.	.	.
.	.	1d	.	2f	.	.	.	.	.
.	.	.	.	2d	.	2g	.	.	.
1r	.	1c	.	2e	.	2a	.	1ee	-ra
.	.	.	.	2f	.	2f	.	.	.
=103	=103	=103	=103	=103	=103	=103	=103	=103	=103
1r	.	2B-y	-ra	1.g	.	1.b-y	-tu-	[0.dd	sunt
.	.	2G	.	.	.	.	.	.	.
1r	.	2B-y	.	.	.	.	.	.	.
.	.	2c	.	4f	.	4a	.	.	.
.	.	.	.	4e	.	4g	.	.	.
1D	an-	1d	.	1f	.	1a	-ra	.	.
=104	=104	=104	=104	=104	=104	=104	=104	=104	=104
0G	-nun-	1G	sunt	0g	.	0.g	sunt	0dd]	.
.	.	1r	.	.	.	.	.	.	.
1G	-ci-	1d	an-	1G	an-	.	.	1dd	an-
=105	=105	=105	=105	=105	=105	=105	=105	=105	=105
1.G	-a-	0g	-nun-	1B-y	-nun-	1r	.	0dd	-nun-
.	.	.	.	1B-y	-ci-	1r	.	.	.
2F	.	.	.	.	.	.	.	.	.
1E	.	1g	-ci-	1c	-a-	1c	an-	1ee	-ci-
=106	=106	=106	=106	=106	=106	=106	=106	=106	=106
1D	-bit	1f	-a-	1.d	-bit	1.f	-nun-	1.ff	-a-
0d	vo-	1d	-bit	.	.	.	.	.	.
.	.	.	.	2e	.	2g	-ci-	2ee	.
.	.	1r	.	2f	.	1a	-a-	2dd	.
.	.	.	.	2e	.	.	.	2cc	.
=107	=107	=107	=107	=107	=107	=107	=107	=107	=107
0G	.	1.B-y	vo-	0g	vo-	0b-y	-bit	1dd	.
.	.	.	.	.	.	.	.	1.ee	.
.	.	2c	.	.	.	.	.	.	.
1B-y	.	1d	.	1f	.	1f	vo-	.	.
.	.	.	.	.	.	.	.	2dd	-bit
=108	=108	=108	=108	=108	=108	=108	=108	=108	=108
1B-y	.	1G	-bis,	1d	.	1g	.	0dd	vo-
0A	.	1.c	vo-	0e	.	0a	.	.	.
.	.	.	.	.	.	.	.	1cc#i	.
.	.	2B-y	.	.	.	.	.	.	.
=109	=109	=109	=109	=109	=109	=109	=109	=109	=109
0D	-bis,	0A	.	0.d	-bis,	0f	-bis,	[0.dd	-bis,
1r	.	1G	.	.	.	1r	.	.	.
=110	=110	=110	=110	=110	=110	=110	=110	=110	=110
2D	al-	0A	-bis,	1%3r	.	1d	al-	0dd]	.
2E	.	.	.	.	.	.	.	.	.
2F	.	.	.	.	.	1d	-le-	.	.
2G	.	.	.	.	.	.	.	.	.
1A	-le-	1r	.	.	.	1c	-lu-	1r	.
=111	=111	=111	=111	=111	=111	=111	=111	=111	=111
1F	-lu-	1.A	al-	1d	al-	0f	-ia,	1%3r	.
1D	.	.	.	1d	-le-	.	.	.	.
.	.	2B-y	-le-	.	.	.	.	.	.
1A	-ia,	1c	-lu-	1c	-lu-	1e	al-	.	.
=112	=112	=112	=112	=112	=112	=112	=112	=112	=112
2D	al-	0d	-ia,	0A	-ia,	1.a	-le-	1dd	al-
2E	.	.	.	.	.	.	.	.	.
2F	.	.	.	.	.	.	.	1dd	-le-
2G	.	.	.	.	.	4g	.	.	.
.	.	.	.	.	.	4f	.	.	.
1A	-le-	1r	.	1r	.	1e	.	1cc	-lu-
=113	=113	=113	=113	=113	=113	=113	=113	=113	=113
1F	-lu-	1f	al-	1d	al-	2f	.	0a	-ia,
.	.	.	.	.	.	2g	.	.	.
1D	.	1f	-le-	1d	-le-	2a	.	.	.
.	.	.	.	.	.	2b-y	.	.	.
1A	-ia,	1e	.	1c	-lu-	1a	.	1r	.
=114	=114	=114	=114	=114	=114	=114	=114	=114	=114
2D	al-	1f	-lu-	1.A	-ia	1a	-lu-	1dd	al-
2E	.	.	.	.	.	.	.	.	.
2F	.	1d	-ia,	.	.	1f	-ia,	1dd	-le-
2G	.	.	.	2B-y	.	.	.	.	.
1A	-le-	1r	.	1c	.	1e	al-	1cc	-lu-
=115	=115	=115	=115	=115	=115	=115	=115	=115	=115
1F	-lu-	1%3r	.	0d	.	1.f	-le-	1a	-ia,
1D	.	.	.	.	.	.	.	1.b-y	al-
.	.	.	.	.	.	2e	.	.	.
1G	.	.	.	1B-y	al-	2d	.	.	.
.	.	.	.	.	.	2c	.	2a	-le-
=116	=116	=116	=116	=116	=116	=116	=116	=116	=116
1E	.	1G	al-	1c	-le-	1c	.	0g	-lu-
0D	-ia,	1A	-le-	0A	-lu-	0d	-lu-	.	.
.	.	1F	-lu-	.	.	.	.	1f#i	.
=117	=117	=117	=117	=117	=117	=117	=117	=117	=117
1r	.	1.B-y	-ia,	[0.Gl	-ia.	0d	-ia,	[0.gl	-ia.
1G	al-	.	.	.	.	.	.	.	.
.	.	2c	.	.	.	.	.	.	.
1G	-le-	1d	.	.	.	1B-y	al-	.	.
=118	=118	=118	=118	=118	=118	=118	=118	=118	=118
1E	-lu-	1G	al-	0.G_	.	1c	-le-	0.g_	.
2C	-ia,	1c	-le-	.	.	0e-X	-lu-	.	.
2D	al-	.	.	.	.	.	.	.	.
2E	-le-	1c	-lu-	.	.	.	.	.	.
2F	-lu-	.	.	.	.	.	.	.	.
=119	=119	=119	=119	=119	=119	=119	=119	=119	=119
00Gl	-ia.	00B-yl	-ia.	00G]	.	00dl	-ia.	00g]	.
==	==	==	==	==	==	==	==	==	==
*-	*-	*-	*-	*-	*-	*-	*-	*-	*-
!!!system-decoration: [*]
!!!RDF**kern: i = editorial accidental
!!!RDF**kern: l = terminal long
!!!ENC: Benjamin Ory
!!!END: 2022/2/8
!!!EED: Benjamin Ory
!!!EEV: 2022/02/08
!!!YEC: Copyright 2022 Benjamin Ory, All Rights Reserved
!!!ONB: Translated from MusicXML on 2022/02/06
